X: 560
T: Absent Friends
R: jig
M: 6/8
K: Dminor
|:"Dm"d2d dcd|"C"cAG ED[CE]|"Dm"d2d dcd|"C"cAG [CE]DC|
"Dm"D2d dcd|"Dm"fed "F"cAG|"C"EDE c2E|"C"c2E [CE]DE:|
K:D
|:DED F2F|"Em"GFE "A7"ABA|"G"BAG "D"FEF|"A7"EFG ABc|
"D"dDD FDD|"D"dcd AGF|"G"Bcd "D"AFD|"A"E[FD][EC] D3:|

